svgs/obsidentify.svg

<svg xmlns="http://www.w3.org/2000/svg" viewBox="0 0 192 192"><path d="M44.204 170.161c-17.217-6.152-19.655-28.359-5.068-46.16 1.812-2.211 3.294-4.465 3.294-5.009 0-.545-1.864-2.083-4.143-3.418-2.278-1.335-6.52-5.055-9.425-8.265-19.061-21.064-16.311-49.381 5.424-55.835 12.626-3.75 27.335.679 39.609 11.927 3.321 3.042 6.222 5.205 6.447 4.805.224-.399.678-1.858 1.009-3.241.33-1.384 1.638-3.749 2.907-5.257 2.206-2.622 2.251-2.929 1.023-7.006-2.848-9.465-8.173-17.102-14.151-20.296-1.553-.83-5.364-1.978-8.469-2.55-5.164-.953-5.672-1.264-5.949-3.644-.46-3.948 1.278-5.311 6.77-5.31 13.014.002 25.716 11.952 30.755 28.934.652 2.2 1.526 4 1.942 4 .416 0 1.237-1.789 1.826-3.976 2.919-10.84 10.926-21.694 19.034-25.803 7.681-3.892 17.814-4.186 18.766-.543.762 2.914-.9 5.856-3.31 5.856-4.294 0-12.03 2.939-15.306 5.815-4.123 3.62-7.682 9.602-9.815 16.495-1.633 5.278-1.632 5.286.61 8.591 1.235 1.819 2.492 4.291 2.793 5.493.302 1.203.976 2.186 1.498 2.186.521 0 3.356-2.223 6.298-4.94 15.322-14.148 35.877-17.038 47.911-6.738 7.424 6.355 10.663 16.522 8.702 27.314-1.094 6.02-7.01 19.012-9.006 19.778-.682.261-2.952-.399-5.047-1.467-2.094-1.068-6.792-2.454-10.441-3.08-12.702-2.178-25.099 1.769-34.891 11.109-12.251 11.685-16.248 29.018-10.336 44.82 1.111 2.968 1.725 5.874 1.364 6.457-.36.583-2.553 1.899-4.874 2.926-5.851 2.588-11.417 1.695-16.165-2.595l-3.543-3.2-6.533 4.603c-10.816 7.62-22.748 10.355-31.51 7.224Zm86.234-20.319-7.459-7.503 2.234-2.377c1.229-1.308 2.705-2.378 3.282-2.378.576 0 3.129 2.114 5.674 4.697l4.628 4.698 10.639-10.497 10.64-10.497 2.341 2.199c1.288 1.21 2.341 2.661 2.341 3.225 0 1.291-24.622 25.935-25.911 25.935-.523 0-4.307-3.376-8.409-7.502Z"/></svg>

<svg
    xmlns="http://www.w3.org/2000/svg"
    viewBox="0 0 192 192"
    id="vector">
    <g id="group">
        <path
            id="path_6"
            d="M 44.204 170.161 C 26.987 164.009 24.549 141.802 39.136 124.001 C 40.948 121.79 42.43 119.536 42.43 118.992 C 42.43 118.447 40.566 116.909 38.287 115.574 C 36.009 114.239 31.767 110.519 28.862 107.309 C 9.801 86.245 12.551 57.928 34.286 51.474 C 46.912 47.724 61.621 52.153 73.895 63.401 C 77.216 66.443 80.117 68.606 80.342 68.206 C 80.566 67.807 81.02 66.348 81.351 64.965 C 81.681 63.581 82.989 61.216 84.258 59.708 C 86.464 57.086 86.509 56.779 85.281 52.702 C 82.433 43.237 77.108 35.6 71.13 32.406 C 69.577 31.576 65.766 30.428 62.661 29.856 C 57.497 28.903 56.989 28.592 56.712 26.212 C 56.252 22.264 57.99 20.901 63.482 20.902 C 76.496 20.904 89.198 32.854 94.237 49.836 C 94.889 52.036 95.763 53.836 96.179 53.836 C 96.595 53.836 97.416 52.047 98.005 49.86 C 100.924 39.02 108.931 28.166 117.039 24.057 C 124.72 20.165 134.853 19.871 135.805 23.514 C 136.567 26.428 134.905 29.37 132.495 29.37 C 128.201 29.37 120.465 32.309 117.189 35.185 C 113.066 38.805 109.507 44.787 107.374 51.68 C 105.741 56.958 105.742 56.966 107.984 60.271 C 109.219 62.09 110.476 64.562 110.777 65.764 C 111.079 66.967 111.753 67.95 112.275 67.95 C 112.796 67.95 115.631 65.727 118.573 63.01 C 133.895 48.862 154.45 45.972 166.484 56.272 C 173.908 62.627 177.147 72.794 175.186 83.586 C 174.092 89.606 168.176 102.598 166.18 103.364 C 165.498 103.625 163.228 102.965 161.133 101.897 C 159.039 100.829 154.341 99.443 150.692 98.817 C 137.99 96.639 125.593 100.586 115.801 109.926 C 103.55 121.611 99.553 138.944 105.465 154.746 C 106.576 157.714 107.19 160.62 106.829 161.203 C 106.469 161.786 104.276 163.102 101.955 164.129 C 96.104 166.717 90.538 165.824 85.79 161.534 L 82.247 158.334 L 75.714 162.937 C 64.898 170.557 52.966 173.292 44.204 170.161 Z M 130.438 149.842 L 122.979 142.339 L 125.213 139.962 C 126.442 138.654 127.918 137.584 128.495 137.584 C 129.071 137.584 131.624 139.698 134.169 142.281 L 138.797 146.979 L 149.436 136.482 L 160.076 125.985 L 162.417 128.184 C 163.705 129.394 164.758 130.845 164.758 131.409 C 164.758 132.7 140.136 157.344 138.847 157.344 C 138.324 157.344 134.54 153.968 130.438 149.842 Z"
            fill="#000000"
            stroke-width="12"/>
    </g>
</svg>
